svgs/1F606.svg

<svg xmlns="http://www.w3.org/2000/svg" xmlns:xlink="http://www.w3.org/1999/xlink" preserveAspectRatio="none" viewBox="0 0 72 72"><defs><path id="a" fill="#FCC21B" d="M35.85 4.85q-22.3 0-31.05 20.65Q0 36.75 0 51.95q0 5.85 10.5 9.95 10.5 4.15 25.35 4.15 14.9 0 25.4-4.15 10.5-4.1 10.5-9.95 0-15.2-4.8-26.45Q58.2 4.85 35.85 4.85z"/><path id="b" fill="#2F2F2F" d="M100.25 45.75q-.15-1.1-1.05-1.75-.85-.65-1.95-.5-3.55.55-7.95 1.7-8.65 2.25-14.3 5.65-.75.45-1.1 1.3-.3.85-.1 1.7.25.85 1 1.35.7.55 1.6.55.05 0 6.4.4 7.25.8 12.15 3 .3.15.6.15.9.15 1.7-.25.85-.4 1.2-1.25.45-1 .05-2-.4-1.05-1.4-1.45-4.85-2.2-10.2-2.95 5.8-1.9 11.1-2.65 1.1-.15 1.75-1.05.65-.85.5-1.95z"/><path id="c" fill="#2F2F2F" d="M28.45 47.7q.65.9 1.7 1.05.45 0 3.4.6 4.05.85 7.75 2.05-5.4.75-10.25 2.95-.95.4-1.35 1.45-.4 1.05.05 2 .35.85 1.2 1.25.75.4 1.65.25.3 0 .6-.15 4.9-2.2 12.2-3 3.65-.4 6.35-.4.9 0 1.65-.55.7-.5.95-1.35.25-.85-.05-1.7-.35-.85-1.15-1.3-5.65-3.4-14.3-5.65-7.65-1.65-7.95-1.7-1.1-.15-1.95.5-.85.65-1 1.75-.15 1.1.5 1.95z"/><path id="d" fill="#ED6C30" d="M96.45 68.3q-2-1.35-5.1-1.05Q91 67.3 86 68.3q-10.05 2.05-22 2.05-12 0-22.05-2.05-5-1-5.35-1.05-3.1-.3-5.1 1.05-2.9 1.95-1.2 7.85Q32 82 36.65 86.85q4.2 4.35 9.55 7.15 8.1 4.25 17.8 4.25 9.65 0 17.75-4.25 5.35-2.8 9.55-7.15Q96 82 97.65 76.15q1.7-5.9-1.2-7.85z"/></defs><use xlink:href="#a"/><use transform="scale(.5625)" xlink:href="#b"/><use transform="scale(.5625)" xlink:href="#c"/><use transform="scale(.5625)" xlink:href="#d"/></svg>

<svg xmlns="http://www.w3.org/2000/svg" version="1.1" xmlns:xlink="http://www.w3.org/1999/xlink" preserveAspectRatio="none" x="0px" y="0px" width="72px" height="72px" viewBox="0 0 72 72">
<defs>
<g id="Layer0_0_FILL">
<path fill="#FCC21B" stroke="none" d="
M 35.85 4.85
Q 13.55 4.85 4.8 25.5 0 36.75 0 51.95 0 57.8 10.5 61.9 21 66.05 35.85 66.05 50.75 66.05 61.25 61.9 71.75 57.8 71.75 51.95 71.75 36.75 66.95 25.5 58.2 4.85 35.85 4.85 Z"/>
</g>

<g id="Layer0_1_MEMBER_0_FILL">
<path fill="#2F2F2F" stroke="none" d="
M 100.25 45.75
Q 100.1 44.65 99.2 44 98.35 43.35 97.25 43.5 93.7 44.05 89.3 45.2 80.65 47.45 75 50.85 74.25 51.3 73.9 52.15 73.6 53 73.8 53.85 74.05 54.7 74.8 55.2 75.5 55.75 76.4 55.75 76.45 55.75 82.8 56.15 90.05 56.95 94.95 59.15 95.25 59.3 95.55 59.3 96.45 59.45 97.25 59.05 98.1 58.65 98.45 57.8 98.9 56.8 98.5 55.8 98.1 54.75 97.1 54.35 92.25 52.15 86.9 51.4 92.7 49.5 98 48.75 99.1 48.6 99.75 47.7 100.4 46.85 100.25 45.75 Z"/>
</g>

<g id="Layer0_1_MEMBER_1_FILL">
<path fill="#2F2F2F" stroke="none" d="
M 28.45 47.7
Q 29.1 48.6 30.15 48.75 30.6 48.75 33.55 49.35 37.6 50.2 41.3 51.4 35.9 52.15 31.05 54.35 30.1 54.75 29.7 55.8 29.3 56.85 29.75 57.8 30.1 58.65 30.95 59.05 31.7 59.45 32.6 59.3 32.9 59.3 33.2 59.15 38.1 56.95 45.4 56.15 49.05 55.75 51.75 55.75 52.65 55.75 53.4 55.2 54.1 54.7 54.35 53.85 54.6 53 54.3 52.15 53.95 51.3 53.15 50.85 47.5 47.45 38.85 45.2 31.2 43.55 30.9 43.5 29.8 43.35 28.95 44 28.1 44.65 27.95 45.75 27.8 46.85 28.45 47.7 Z"/>
</g>

<g id="Layer0_2_FILL">
<path fill="#ED6C30" stroke="none" d="
M 96.45 68.3
Q 94.45 66.95 91.35 67.25 91 67.3 86 68.3 75.95 70.35 64 70.35 52 70.35 41.95 68.3 36.95 67.3 36.6 67.25 33.5 66.95 31.5 68.3 28.6 70.25 30.3 76.15 32 82 36.65 86.85 40.85 91.2 46.2 94 54.3 98.25 64 98.25 73.65 98.25 81.75 94 87.1 91.2 91.3 86.85 96 82 97.65 76.15 99.35 70.25 96.45 68.3 Z"/>
</g>
</defs>

<g id="Layer_1">
<g transform="matrix( 1, 0, 0, 1, 0,0) ">
<use xlink:href="#Layer0_0_FILL"/>
</g>

<g transform="matrix( 0.5625, 0, 0, 0.5625, 0,0) ">
<use xlink:href="#Layer0_1_MEMBER_0_FILL"/>
</g>

<g transform="matrix( 0.5625, 0, 0, 0.5625, 0,0) ">
<use xlink:href="#Layer0_1_MEMBER_1_FILL"/>
</g>

<g transform="matrix( 0.5625, 0, 0, 0.5625, 0,0) ">
<use xlink:href="#Layer0_2_FILL"/>
</g>
</g>
</svg>
